archdroid-icon-theme/Archdroid-Amber/animations/scalable/nm-vpn-connecting03.svg

<svg fill="#FFC107" height="48" viewBox="0 0 48 48" width="48" xmlns="http://www.w3.org/2000/svg"><g fill="#FFC107"><path d="m24.02 42.98 23.26-28.98c-.9-.68-9.85-8-23.28-8s-22.38 7.32-23.28 8l23.26 28.98.02.02z" fill-opacity=".3"/><path d="m42 32c-2.208 0-3.999653 1.68-4 3.75v2.25h-.285156c-.94949 0-1.714844.742758-1.714844 1.666016v6.666016c0 .923256.765354 1.667968 1.714844 1.667968h8.572266c.949489 0 1.71289-.744712 1.71289-1.667969v-6.666016c0-.923257-.763401-1.666015-1.712891-1.666015h-.287109v-2.25c0-2.07-1.792-3.75-4-3.75zm0 2c1.106667 0 2 .893333 2 2v2h-4v-2c0-1.106667.893333-2 2-2zm-34.93-12.09 16.92 21.07.01.02.02-.02 16.92-21.07c-.86-.66-7.32-5.91-16.94-5.91-9.63 0-16.08 5.25-16.93 5.91z"/></g></svg>

<svg fill="#FFC107" height="48" version="1.1" viewBox="0 0 48 48" width="48" xmlns="http://www.w3.org/2000/svg"><path d="M24.02 42.98L47.28 14c-.9-.68-9.85-8-23.28-8S1.62 13.32.72 14l23.26 28.98.02.02.02-.02z" fill-opacity=".3"/><path d="m42 32c-2.208 0-3.999653 1.68-4 3.75L38 38 37.714844 38C36.765354 38 36 38.742758 36 39.666016l0 6.666016C36 47.255288 36.765354 48 37.714844 48l8.572266 0C47.236599 48 48 47.255288 48 46.332031l0-6.666016C48 38.742758 47.236599 38 46.287109 38L46 38 46 35.75C46 33.68 44.208 32 42 32Zm0 2c1.106667 0 2 .893333 2 2l0 2-4 0 0-2c0-1.106667.893333-2 2-2zM7.07 21.91L23.99 42.98l.01.02.02-.02L40.94 21.91C40.08 21.25 33.62 16 24 16 14.37 16 7.92 21.25 7.07 21.91Z" fill="#FFC107"/></svg>
